svg/color/nio.svg

<svg height="32" viewBox="0 0 32 32" width="32" xmlns="http://www.w3.org/2000/svg"><g fill="none" fill-rule="nonzero"><circle cx="16" cy="16" fill="#70c9c9" r="16"/><path d="m16 13.7635025h-4.822112l4.822112-8.2635025 4.822112 8.2635025zm.6548547 9.7364975 2.5152374-4.3085106 2.411056-4.1317513 4.9188519 8.4402619zm-3.8249468-4.3085106 2.5152374 4.3085106h-9.8451453l4.9188519-8.4402619z" fill="#fff"/></g></svg>

<svg xmlns="http://www.w3.org/2000/svg" width="32" height="32" viewBox="0 0 32 32">
  <g fill="none" fill-rule="evenodd">
    <circle cx="16" cy="16" r="16" fill="#70C9C9" fill-rule="nonzero"/>
    <path fill="#FFF" fill-rule="nonzero" d="M16,13.7635025 L11.177888,13.7635025 L16,5.5 L20.822112,13.7635025 L16,13.7635025 Z M16.6548547,23.5 L19.1700921,19.1914894 L21.5811481,15.0597381 L26.5,23.5 L16.6548547,23.5 Z M12.8299079,19.1914894 L15.3451453,23.5 L5.5,23.5 L10.4188519,15.0597381 L12.8299079,19.1914894 Z"/>
  </g>
</svg>
